src/svg/icon-male.svg

<svg width="12" height="30" viewBox="0 0 12 30" fill="none" xmlns="http://www.w3.org/2000/svg">
<path d="M8.47412 6.08398H3.52588C1.58118 6.08398 0 7.63373 0 9.5475V14.5122C0 15.7846 0.702353 16.9044 1.74706 17.5008C1.93412 17.6082 2.16706 17.48 2.16706 17.2719V9.84566C2.16706 9.72432 2.26588 9.62724 2.38941 9.62724C2.51294 9.62724 2.61176 9.72085 2.61176 9.84566V28.3663C2.61176 29.2192 3.28235 29.9715 4.15765 29.9993C5.05412 30.0201 5.79882 29.3163 5.79882 28.4356V18.6033C5.79882 18.4889 5.89412 18.3849 6.02118 18.3849C6.14823 18.3849 6.24353 18.4854 6.24353 18.6033V28.3663C6.24353 29.2261 6.91412 29.9715 7.78941 29.9993C8.69647 30.027 9.43412 29.3163 9.43412 28.4356V9.84566C9.43412 9.72432 9.52941 9.62724 9.65647 9.62724C9.78353 9.62724 9.87882 9.72085 9.87882 9.84566V17.2338C9.87882 17.4522 10.1188 17.5805 10.3059 17.4696C11.3224 16.8628 12 15.7638 12 14.5088V9.54404C11.9965 7.63026 10.4224 6.08398 8.47412 6.08398Z" fill="currentColor"/>
<path d="M6.01769 5.56103C7.58096 5.56103 8.84825 4.31615 8.84825 2.78051C8.84825 1.24488 7.58096 0 6.01769 0C4.45442 0 3.18713 1.24488 3.18713 2.78051C3.18713 4.31615 4.45442 5.56103 6.01769 5.56103Z" fill="currentColor"/>
</svg>

<svg xmlns="http://www.w3.org/2000/svg" width="12" height="30" fill="none" viewBox="0 0 12 30"><path fill="currentColor" d="M8.474 6.084H3.526C1.58 6.084 0 7.634 0 9.548v4.964c0 1.273.702 2.392 1.747 2.989.187.107.42-.021.42-.23V9.847a.22.22 0 0 1 .222-.219c.124 0 .223.094.223.219v18.52c0 .853.67 1.605 1.546 1.633.896.021 1.64-.683 1.64-1.563v-9.833c0-.114.096-.218.223-.218s.223.1.223.218v9.763c0 .86.67 1.605 1.545 1.633.907.028 1.645-.683 1.645-1.563V9.846c0-.122.095-.219.222-.219.128 0 .223.094.223.219v7.388c0 .218.24.346.427.236A3.45 3.45 0 0 0 12 14.509V9.544c-.004-1.914-1.578-3.46-3.526-3.46m-2.456-.523c1.563 0 2.83-1.245 2.83-2.78C8.848 1.245 7.581 0 6.018 0s-2.83 1.245-2.83 2.78c0 1.536 1.266 2.781 2.83 2.781"/></svg>
